X: 25180
T: Major Molle
R: reel
M: 4/4
K: Aminor
DA A>G|FE DC|DA A>G|F2 E2|DA A>B|cA/B/ cA|G>E CE|G2 FE:|
DA,- A,A,/A,/|FD EC|DA, A,/A,/A,|F2 EF|DA, A,/A,/A,|FD EF|G>E CE|G2 FE|
DA,- A,A,/A,/|FD EC|DA, A,/A,/A,|F2 EF|DA A>B|cA/B/ cA|G>E CE|G2 FE||

